svg/fluentui-system-icons/ic_fluent_cube_tree_24_filled.svg

<svg width="24" height="24" viewBox="0 0 24 24" fill="none" xmlns="http://www.w3.org/2000/svg">
<path d="M11.7628 2.03849C11.9168 1.98717 12.0832 1.98717 12.2372 2.03849L15.9872 3.28849C16.2934 3.39057 16.5 3.67718 16.5 4V9C16.5 9.32282 16.2934 9.60943 15.9872 9.71151L12.75 10.7906V13H14.5C15.7426 13 16.75 14.0074 16.75 15.25V16.0945C18.0439 16.4275 19 17.6021 19 19C19 20.6569 17.6569 22 16 22C14.3431 22 13 20.6569 13 19C13 17.6021 13.9561 16.4275 15.25 16.0945V15.25C15.25 14.8358 14.9142 14.5 14.5 14.5H9.5C9.08579 14.5 8.75 14.8358 8.75 15.25V16.0945C10.0439 16.4275 11 17.6021 11 19C11 20.6569 9.65685 22 8 22C6.34315 22 5 20.6569 5 19C5 17.6021 5.95608 16.4275 7.25 16.0945V15.25C7.25 14.0074 8.25736 13 9.5 13H11.25V10.7906L8.01283 9.71151C7.70657 9.60943 7.5 9.32282 7.5 9V4C7.5 3.67718 7.70657 3.39057 8.01283 3.28849L11.7628 2.03849ZM9.78849 5.51283C9.6575 5.90579 9.86987 6.33053 10.2628 6.46151L11.25 6.79057V7.75C11.25 8.16421 11.5858 8.5 12 8.5C12.4142 8.5 12.75 8.16421 12.75 7.75V6.79057L13.7372 6.46151C14.1301 6.33053 14.3425 5.90579 14.2115 5.51283C14.0805 5.11987 13.6558 4.9075 13.2628 5.03849L12 5.45943L10.7372 5.03849C10.3442 4.9075 9.91947 5.11987 9.78849 5.51283Z" fill="#212121"/>
</svg>

<svg xmlns="http://www.w3.org/2000/svg" width="24" height="24"><path d="M11.763 2.038a.75.75 0 0 1 .474 0l3.75 1.25A.75.75 0 0 1 16.5 4v5a.75.75 0 0 1-.513.712L12.75 10.79V13h1.75a2.25 2.25 0 0 1 2.25 2.25v.845A3.001 3.001 0 0 1 16 22a3 3 0 0 1-.75-5.905v-.845a.75.75 0 0 0-.75-.75h-5a.75.75 0 0 0-.75.75v.845A3.001 3.001 0 0 1 8 22a3 3 0 0 1-.75-5.905v-.845A2.25 2.25 0 0 1 9.5 13h1.75v-2.21L8.013 9.713A.75.75 0 0 1 7.5 9V4a.75.75 0 0 1 .513-.712l3.75-1.25ZM9.788 5.513a.75.75 0 0 0 .475.949l.987.329v.959a.75.75 0 0 0 1.5 0v-.96l.987-.328a.75.75 0 0 0-.474-1.424L12 5.46l-1.263-.42a.75.75 0 0 0-.949.474Z"/></svg>
